!!!COM: Bach, Johann Sebastian
!!!CDT: 1685/02/21/-1750/07/28/
!!!OPR: Partita for solo violin, No. 2 in D Minor
!!!OTL: Movement 4: Gigue
!!!ODT: 1720///
!!!SCT: BWV 1004
**kern
*>[A,A,B,B]
*>norep[A,B]
*>A
*Ivioln
*clefG2
*k[b-]
*M12/8
*MM108
8a/
=1
(8d/L
8f/
8a/J)
(8dd\L
8ee\
8ff\J)
8ee\L
(16gg\L
16ff\
16ee\
16dd\JJ)
(8cc#/L
8a/
8e/J)
=2
(8c#/L
8e/
8a/J)
(8ee\L
8ff\
8gg\J)
8ff\L
(16aa\L
16gg\
16ff\
16ee\JJ)
(8dd/L
8a/
8f/J)
=3
8d\L
16ff\L
16ee\
16dd\
16ff\JJ
16bb-\LL
16aa\
16gg\
16ff\
16ee\
16dd\JJ
16cc\LL
16dd\
16ee\
16dd\
16cc\
16ee\JJ
16aa\LL
16gg\
16ff\
16ee\
16dd\
16cc\JJ
=4
16b-\LL
16cc\
16dd\
16cc\
16b-\
16dd\JJ
16gg\LL
16ff\
16ee\
16dd\
16cc#\
16b\JJ
16a\LL
16b\
16cc#\
16b\
16a\
16cc#\JJ
16ee\LL
16dd\
16cc#\
16b\
16a\
16g\JJ
=5
(16f/LL
16a/
16g/
16f/
16e/
16d/JJ)
8A\L
8dd\
8cc#\J
8.d/L
16e/L
16f/
16g/JJ
16a\LL
16b-\
16cc\
16dd\
16ee\
16ff\JJ
=6
16gg\LL
16ee\
16cc\
16g\
16e\
16g\JJ
16cc/LL
16g/
16e/
16c/
16e/
16g/JJ
16a/LL
16g/
16f/
16g/
16a/
16b-/JJ
16cc\LL
16dd\
16ee\
16ff\
16gg\
16aa\JJ
=7
(16bb-\LL
16aa\
16bb-\)
16ddd\
16ee\
16gg\JJ
(16aa\LL
16gg\
16aa\)
16ccc\
16dd\
16ff\JJ
(16gg\LL
16ff\
16gg\)
16bb-\
16cc\
16ee\JJ
(16ff\LL
16ee\
16ff\)
16aa\
16gg\
16ff\JJ
=8
(16ee\LL
16dd\
16ee\)
16ff\
16ee\
16dd\JJ
(16cc\LL
16b-\
16cc\)
16dd\
16cc\
16b-\JJ
(16a\LL
16b-\
16cc\)
16ff\
16cc\
16a\JJ
(16f/LL
16g/
16a/)
16cc/
16a/
16f/JJ
=9
(16d/LL
16e-/
16f/)
16b-/
16f/
16d/JJ
(16B-/LL
16c/
16d/)
16f/
16d/
16B-/JJ
16G/LL
16B-/
16d/
16g/
16b-/
16dd/JJ
16gg\LL
16bb-\
16gg\
16dd\
16b-\
16g\JJ
=10
(16e\LL
16g\
16cc\)
16ee\
16gg\
16bb-\JJ
(16cc\LL
16b-\
16cc\)
16bb-\
16cc\
16bb-\JJ
(16f\LL
16a\
16cc\)
16ee\
16ff\
16aa\JJ
(16cc\LL
16b-\
16cc\)
16aa\
16cc\
16aa\JJ
=11
(16e\LL
16g\
16cc\)
16ee\
16gg\
16bb-\JJ
(16cc\LL
16b-\
16cc\)
16bb-\
16cc\
16bb-\JJ
(16f\LL
16a\
16cc\)
16ee\
16ff\
16aa\JJ
(16cc\LL
16b-\
16cc\)
16aa\
16cc\
16aa\JJ
=12
(16b-\LL
16dd\
16ff\)
16aa\
16bb-\
16ddd\JJ
(16ee\LL
16dd\
16ee\)
16ddd\
16ee\
16ddd\JJ
(16a\LL
16cc\
16ee\)
16gg\
16aa\
16ccc\JJ
(16dd\LL
16cc\
16dd\)
16ccc\
16dd\
16ccc\JJ
=13
(16g\LL
16b-\
16dd\)
16ff\
16gg\
16bb-\JJ
(16cc\LL
16b-\
16cc\)
16bb-\
16cc\
16bb-\JJ
(16f\LL
16a\
16cc\)
16ee\
16ff\
16aa\JJ
(16cc\LL
16b-\
16cc\)
16aa\
16ff\
16dd\JJ
=14
16b-/LL
16a/
16b-/
16cc/
16dd/
16b-/JJ
16g/LL
16f/
16g/
16a/
16b-/
16g/JJ
16e/LL
16d/
16e/
16f/
16g/
16e/JJ
16c/LL
16e/
16g/
16cc/J
[8ee/J
=15
16ee/LL]
(16b-/
16a/
16g/
16f/
16e/JJ
16d/LL
16c#/
16B/
16A/)
16g/
16e/JJ
16f/LL
16d/
16f/
16a/
16dd/
16cc#/JJ
16dd\LL
16a\
16dd\
16ff\
16bb\
16aa\JJ
=16
16bb\LL
(16ff\
16ee\
16dd\
16cc\
16b\JJ
16a\LL
16g#\
16f#\)
16e\
16dd\
16b\JJ
16cc\LL
16a\
16cc\
16ee\
16aa\
16gg#\JJ
(16aa\LL
16bb\
16ccc\)
16gg#\
16aa\
16ccc\JJ
=17
(16ff\LL
16gg\
16aa\)
16ee\
16ff\
16aa\JJ
(16dd\LL
16ee\
16ff\)
16cc#\
16dd\
16ff\JJ
8.g#\L
16a\L
16b\
16cc\JJ
(16dd\LL
16ee\
16ff\)
16dd\
16bb\
16dd\JJ
=18
(16cc\LL
16dd\
16ee\)
16cc\
16aa\
16cc\JJ
(16b\LL
16cc\
16dd\)
16b\
16gg#\
16b\JJ
(16cc\LL
16dd\
16ee\)
16cc\
16aa\
16cc\JJ
(16dd\LL
16ee\
16ff\)
16dd\
16bb\
16dd\JJ
=19
(16cc\LL
16dd\
16ee\)
16b\
16cc\
16a\JJ
(16b\LL
16cc\
16dd\)
16a\
16b\
16g#\JJ
16a/LL
16A/
16c#/
16e/J
[8g/J
16g/LL]
16e/
16c#/
16A/
16c#/
16e/JJ
=20
16f\LL
16d\
16f\
16a\
16dd\
16cc#\JJ
16dd\LL
16a\
16dd\
16ff\
16aa\
16gg#\JJ
16aa\LL
16ee\
16cc#\
16a\
16e\
16c#\JJ
4A/
=:|!|:
*>B
8ee\
=21
(8a\L
8cc#\
8ee\J)
(8g/L
8a/
8b-/J)
8c#/L
16e/L
16d/
16c#/
16B/JJ
(8A/L
8c#/
8e/J)
=22
16g/LL
16a/
16b-/
16a/
16g/
16b-/JJ
16ee/LL
16dd/
16cc#/
16b/
16a/
16g/JJ
16f/LL
16e/
16f/
16g/
16a/
16f/JJ
8.d/L
16dd/L
16cc/
16b-/JJ
=23
16a/LL
(16cc/
16b-/
16a/
16g/
16f#/JJ)
16ee-/LL
16dd/
16cc/
16b-/
16a/
16g/JJ
16f#/LL
(16a/
16g/
16f#/
16e/
16d/JJ)
16aa\LL
16gg\
16ff#\
16ee\
16dd\
16cc\JJ
=24
16b-\LL
(16dd\
16cc\
16b-\
16a\
16g\JJ)
16ccc\LL
16bb-\
16aa\
16gg\
16ff#\
16ee\JJ
16dd\LL
16ee\
16ff#\
16aa\
16gg\
16ff\JJ
16ee-\LL
16dd\
16cc\
16b-\
16a\
16g\JJ
=25
(16f#\LL
16a\
16dd\)
16ff#\
16aa\
16ccc\JJ
(16dd\LL
16cc\
16dd\)
16ccc\
16dd\
16ccc\JJ
(16g\LL
16b-\
16dd\)
16ff#\
16gg\
16bb-\JJ
(16dd\LL
16cc\
16dd\)
16bb-\
16dd\
16bb-\JJ
=26
(16f#\LL
16a\
16dd\)
16ff#\
16aa\
16ccc\JJ
(16dd\LL
16cc\
16dd\)
16ccc\
16dd\
16ccc\JJ
(16g\LL
16b-\
16dd\)
16ff#\
16gg\
16bb-\JJ
(16dd\LL
16cc\
16dd\)
16bb-\
16dd\
16bb-\JJ
=27
(16c/LL
16e-/
16g/)
16b-/
16cc/
16ee-/JJ
(16f/LL
16e-/
16f/)
16ee-/
16f/
16ee-/JJ
(16B-/LL
16d/
16f/)
16a/
16b-/
16dd/JJ
(16e-/LL
16d/
16e-/)
16dd/
16e-/
16dd/JJ
=28
(16A/LL
16c/
16e-/)
16g/
16a/
16cc/JJ
(16d/LL
16c/
16d/)
16cc/
16d/
16cc/JJ
(16G/LL
16B-/
16d/)
16f#/
16g/
16b-/JJ
(16d/LL
16f#/
16g/)
16b-/
16dd/
16gg/JJ
=29
16ee-\LL
16dd\
16ee-\
16ff\
16gg\
16ee-\JJ
16cc\LL
16b-\
16cc\
16dd\
16ee-\
16cc\JJ
16a\LL
16g\
16a\
16b-\
16cc\
16a\JJ
16f#\LL
16a\
16dd\
16ff#\
16aa\
16ccc\JJ
=30
(16bb-\LL
16aa\)
(16ccc\
16bb-\
16aa\
16gg\JJ)
16dd\LL
16gg\
16ff#\
16gg\
16aa\
16ff#\JJ
16gg\LL
(16ee-\
16dd\
16cc\
16b-\
16a\JJ)
16b-\LL
16g\
16a\
16b-\
16cc\
16dd\JJ
=31
(16ee\LL
16ff\
16gg\)
16ee\
16b-\
16ee\JJ
(16c/LL
16e/
16g/)
16b-/
16a/
16g/JJ
(16a/LL
16b-/
16cc/)
16a/
16f/
16a/JJ
(16B-/LL
16d/
16f/)
16a/
16f/
16d/JJ
=32
(16cc#/LL
16dd/
16ee/)
16cc#/
16g/
16cc#/JJ
(16A/LL
16c#/
16e/)
16g/
16f/
16e/JJ
16f/LL
16d/
16f/
16a/
16dd/
16cc#/JJ
16dd\LL
16a\
16dd\
16ff\
16aa\
16cc\JJ
=33
16b-\LL
(16aa\
16gg\
16ff\
16ee\
16dd\JJ)
16cc\LL
16dd\
16ee\
16ff\
16gg\
16b-\JJ
16a\LL
(16gg\
16ff\
16ee\
16dd\
16cc\JJ)
16b-\LL
16cc\
16dd\
16ee\
16ff\
16a\JJ
=34
16g\LL
(16ff\
16ee\
16dd\
16cc#\
16b\JJ)
16a\LL
16b\
16cc#\
16dd\
16ee\
16g\JJ
16f/LL
16a/
16dd/
16a/
16f/
16a/JJ
16d/LL
16f/
16a/
16f/
16d/
16f/JJ
=35
(16B-/LL
16f/
16dd/)
16ff/
16ee/
16cc#/JJ
(16A/LL
16f/
16dd/)
16ff/
16ee/
16cc#/JJ
(16G/LL
16f/
16dd/)
16ff/
16ee/
16dd/JJ
(16bb-\LL
16aa\
16gg\
16ff\
16ee\
16dd\JJ)
=36
16cc#\LL
16ee\
16ff\
16gg\
16aa\
16ee\JJ
(16dd\LL
16cc#\
16b\
16a\)
(16ee\
16g\JJ)
(16f/LL
16g/
16a/)
16f/
16dd/
16f/JJ
(16e/LL
16f/
16g/)
16e/
16cc/
16e/JJ
=37
(16d/LL
16e/
16f/)
16d/
16b-/
16d/JJ
(16c/LL
16d/
16e/)
16c/
16a/
16c/JJ
(16B-/LL
16c/
16d/)
16B-/
16g/
16d/JJ
(16g/LL
16a/
16b-/)
16g/
16ee-/
16g/JJ
=38
(16A/LL
16B/
16c#/)
16A/
16g/
16A/JJ
(16g/LL
16a/
16b-/)
16g/
16cc#/
16g/JJ
(16f/LL
16g/
16a/)
16f/
16dd/
16a/JJ
(16dd\LL
16ee\
16ff\)
16dd\
16bb\
16dd\JJ
=39
16g#\LL
16a\
16b\
16cc#\
16dd\
16ee\JJ
(16ff\LL
16ee\
16dd\
16cc#\
16dd\)
16g#\JJ
16a\LL
16cc#\
16dd\
16ee\
16ff\
16gg\JJ
16aa\LL
16bb-\
(16ee\
16ff\
16gg\)
16cc#\JJ
=40
16dd\LL
16d\
16f\
16a\
16dd\
16ee\JJ
16ff\LL
16dd\
16ff\
16aa\
16ddd\
16ccc#\JJ
16ddd\LL
16aa\
16ff\
16dd\
16a\
16f\JJ
4d/
==:|!
*-
